X:1
T:Acipite Spiritum Sanctum
T:Jan Tollius
T:Acipite Spiritum Sanctum
C:Jan Tollius
%%score [ 1 2 3 ]
L:1/8
Q:1/4=65
M:4/4
K:F
V:1 treble nm="Soprano" snm="S"
V:2 treble-8 nm="Tenor" snm="T"
V:3 bass nm="Bass" snm="B"
V:1
 z4 z2 z c | A>B c2 dd/d/ ^c2 | d4 z c A>B | c8 | AA/A/ e2 A2 A>A | Bc d>d cA B2 | %6
w: Ac-|ci- pi- te Spi- ri- tum san-|ctum: Ac- ci- pi-|te|Spi- ri- tum san- ctum: Quo- rum|re- mi- se- ri- tis pec- ca-|
 A2 z G/A/ B>B c2- | c=B/A/ B2 c4- | c8 | z c c2 A2 z F | GA B>B A2 z G | GF/E/ D>C D/E/ F2 E | %12
w: ta, re- mit- tun- tur e-|* * * * is:|_|et quo- rum re-|ti- nu- e- ri- tis, re-|ten- * * * * * * * ta|
 F4 z4 | z8 | z2 z G GF/E/ D>C | D/E/ F2 E F4- | F8 || z ccc fe/d/ ed/c/ | dc/B/ c=B/A/ B2 c2 | %19
w: sunt.||re- ten- * * * *|* * * ta sunt.|_|Fi- de- lis ser- * * * * *|* * * * * * * mo,|
 z ccc fe/d/ ed/c/ | dc/B/ c=B/A/ B2 cc | c>c c/c/c AF G>G | F2 E/F/G G A2 G- | G/F/ F2 E F4 | %24
w: Fi- de- lis ser- * * * * *|* * * * * * * mo, si|quis e- pis- co- pa- tum de- si- de-|rat, bo- num o- pus de- si-|* * * de- rat:|
 z4 z ABc | d2 dc B>B AF | G/A/B/c/ dd/d/ ee/e/ d2 | e2 z A Bc d2 | dc B/A/ A2 GAA | %29
w: O- por- tet|e- nim E- pis- co- pum ir-|re- * * * * pre- hen- si- bi- lem es-|se. O- por- tet e-|nim E- pis- * * co- pum ir-|
 B/c/d/e/ ff/f/ d>c =Bd- | d/c/ c2 =B c4- | c8 || z F A>B c2 c2 | z c d2 c2 z2 | z F A>B c2 cA | %35
w: re- * * * * pre- hen- si- bi- lem es-|* * * * se.|_|O- por- tet au- tem|et il- lum|O- por- tet au- tem et|
 B2 A2 z F A>B | c2 c2 z c F2 | c2 z2 z2 A>A | AA/B/ cc/B/ A2 G2 | A>A AA/B/ cc/d/ G>F | %40
w: il- lum O- por- tet|au- tem et il-|lum tes- ti-|mo- ni- um bo- num ha- be- re|tes- ti- mo- ni- um bo- num ha- be- *|
 E/D/ D2 ^C D2 z2 | z2 A>A AA/B/ cc/B/ | A2 G2 z2 z G | d2 z c B/c/d/e/ fc | G2 z2 z G d2 | %45
w: * * * * re|tes- ti- mo- ni- um bo- num ha-|be- re ab|his qui fo- * * * * ris|sunt. ab his|
 z c B/c/d/e/ fc G2 | z8 |] %47
w: qui fo- * * * * ris sunt.||
V:2
 z4 z c A>B | c4 ff/f/ e2 | ^f4 z4 | z c A>B c4 | ff/f/ e2 ^f4 | z2 d>d ef g>g | fd _e2 d2 z c/d/ | %7
w: Ac- ci- pi-|te Spi- ri- tum san-|ctum:|Ac- ci- pi- te|Spi- ri- tum san- ctum:|Quo- rum re- mi- se- ri-|tis pec- ca- ta, re- mit-|
 _e>e d2 c4 | z2 z F/G/ A>A G2 | F2 z f f2 d2 | z cde f>f c2- | c2 z2 z A G>G | A4 z c c2 | %13
w: tun- tur e- is:|re- mit- tun- tur e-|is: et quo- rum|re- ti- nu- e- ri- tis,|_ re- ten- ta|sunt. et quo-|
 A2 z F GA B>B | A2 z2 z c cB/A/ | GF G>G F4- | F8 || z4 z ccc | fe/d/ ed/c/ d2 c2 | z4 z ccc | %20
w: rum re- ti- nu- e- ri-|tis, re- ten- * *|* * * ta sunt.|_|Fi- de- lis|ser- * * * * * * mo,|Fi- de- lis|
 fe/d/ ed/c/ d2 c2 | z2 z c c>c c/c/c | AF G>G E2 E/F/G | GA G>G F2 z A | Bc d2 dc B/A/A- | %25
w: ser- * * * * * * mo,|si quis e- pis- co- pa-|tum de- si- de- rat, bo- num o-|pus de- si- de- rat: O-|por- tet e- nim E- pis- * *|
 AGAA B/c/d/e/ ff/f/ | d>c =Bd>c c2 B | c4 z4 | z ABc d2 dc | B>B AF G/A/B/c/ dd/d/ | %30
w: * co- pum ir- re- * * * * pre- hen-|si- bi- lem es- * * *|se.|O- por- tet e- nim E-|pis- co- pum ir- re- * * * * pre- hen-|
 ee/e/ d2 e4- | e8 || z2 z F A>B c2 | cA B2 Ac d>e | f2 f2 z2 z f | B2 fF A>B c2 | cf e2 gc d2 | %37
w: si- bi- lem es- se.|_|O- por- tet au-|tem et il- lum O- por- tet|au- tem et|il- lum O- por- tet au-|tem et il- lum et il-|
 e2 d>d dd/e/ ff/g/ | c>B A/G/ G2 ^F G2 | z4 E>E EE/F/ | GG/F/ E2 D2 d>d | dd/e/ ff/g/ c>B A/G/G- | %42
w: lum tes- ti- mo- ni- um bo- num ha-|be- * * * * * re|tes- ti- mo- ni- um|bo- num ha- be- re tes- ti-|mo- ni- um bo- num ha- be- * * * *|
 G^F G2 z A e2 | z d c/d/e/f/ gd A2 | z2 z A e2 z d | c/d/e/f/ gd A2 z2 | z8 |] %47
w: * * re ab his|qui fo- * * * * ris sunt.|ab his qui|fo- * * * * ris sunt.||
V:3
 z F, D,>E, F,4- | F,4 D,D,/D,/ A,2 | D,4 z4 | z2 z C, A,,>B,, C,2 | D,D,/D,/ ^C,2 D,4 | %5
w: Ac- ci- pi- te|_ Spi- ri- tum san-|ctum:|Ac- ci- pi- te|Spi- ri- tum san- ctum:|
 z4 z2 G,,>G,, | A,,B,, C,>C, B,,G,, A,,2 | G,,4 z2 z C,/D,/ | E,>E, F,3 E,/D,/ E,2 | F,4 z4 | z8 | %11
w: Quo- rum|re- mi- se- ri- tis pec- ca-|ta, re- mit-|tun- tur e- * * *|is:||
 z C, C,B,,/A,,/ G,,F,, C,>C, | F,,6 z F, | F,2 D,2 z C,D,E, | F,>F, C,4 z2 | z F,, C,>C, F,,4- | %16
w: re- ten- * * * * * ta|sunt et|quo- rum re- ti- nu-|e- ri- tis,|re- ten- ta sunt.|
 F,,8 || z8 | z C,C,C, G,2 C,2 | z8 | z C,C,C, G,2 C,2 | z F, F,>F, F,/F,/F, E,C, | %22
w: _||Fi- de- lis ser- mo,||Fi- de- lis ser- mo,|si quis e- pis- co- pa- tum de-|
 D,>D, C,2 z A,,/B,,/ C,2 | C,F,, C,>C, F,,4 | z A,,B,,C, D,2 D,C, | %25
w: si- de- rat, bo- num o-|pus de- si- de- rat:|O- por- tet e- nim E-|
 B,,>B,, A,,F,, G,,/A,,/B,,/C,/ D,D,/D,/ | G,,G,,/A,,/ G,,6 | C,4 z A,,B,,C, | %28
w: pis- co- pum ir- re- * * * * pre- hen-|si- bi- lem es-|se. O- por- tet|
 D,2 D,C, B,,>B,, A,,F,, | G,,/A,,/B,,/C,/ D,D,/D,/ G,,G,,/A,,/ G,,2- | G,,4 C,4- | C,8 || z8 | %33
w: e- nim E- pis- co- pum ir-|re- * * * * pre- hen- si- bi- lem es-|* se.|_||
 z F, B,,2 F,2 z B,, | D,>E, F,2 F,2 z F, | G,2 F,4 z F,, | A,,>B,, C,2 C,A,, B,,2 | %37
w: et il- lum O-|por- tet au- tem et|il- lum O-|por- tet au- tem et il-|
 A,,2 z2 D,>D, D,D,/E,/ | F,F,/G,/ C,2 D,2 z2 | z2 A,,>A,, A,,A,,/B,,/ C,C,/D,/ | G,,2 A,,2 z4 | %41
w: lum tes- ti- mo- ni- um|bo- num ha- be- re|tes- ti- mo- ni- um bo- num ha-|be- re|
 D,>D, D,D,/E,/ F,F,/G,/ C,2 | D,2 z G,, D,2 z C, | B,,/C,/D,/E,/ F,C, G,,2 z2 | %44
w: tes- ti- mo- ni- um bo- num ha- be-|re ab his qui|fo- * * * * ris sunt.|
 z G,, D,2 z C, B,,/C,/D,/E,/ | F,C, G,,2 z4 | z8 |] %47
w: ab his qui fo- * * *|* ris sunt.||

